dest/img/logo_ozon_2.0.svg

<svg width="192" height="48" viewBox="0 0 192 48" fill="none" xmlns="http://www.w3.org/2000/svg">
<path fill-rule="evenodd" clip-rule="evenodd" d="M91.2772 26.1054C91.2772 28.615 89.2662 30.6685 86.8074 30.6685H77.1863C74.7275 30.6685 72.7165 28.615 72.7165 26.1054L72.7156 21.8944C72.7156 19.2147 74.448 17.3311 77.1863 17.3311H86.8074C89.5461 17.3311 91.2781 19.2147 91.2781 21.8944L91.2772 26.1054ZM88.0597 12H75.9403C71.0232 12 67 16.1072 67 21.1272V26.8728C67 31.8926 71.0232 36 75.9403 36H88.0597C92.977 36 97 31.8926 97 26.8728V21.1272C97 16.1072 92.977 12 88.0597 12Z" fill="white"/>
<path fill-rule="evenodd" clip-rule="evenodd" d="M24.2769 26.1054C24.2769 28.615 22.2657 30.6685 19.807 30.6685H10.1863C7.72759 30.6685 5.71635 28.615 5.71635 26.1054L5.71569 21.8944C5.71569 19.2147 7.44807 17.3311 10.1863 17.3311H19.807C22.5456 17.3311 24.2778 19.2147 24.2778 21.8944L24.2769 26.1054ZM21.0595 12H8.94029C4.02335 12 0 16.1072 0 21.1272V26.8728C0 31.8926 4.02335 36 8.94029 36H21.0595C25.9767 36 30 31.8926 30 26.8728V21.1272C30 16.1072 25.9767 12 21.0595 12Z" fill="white"/>
<path fill-rule="evenodd" clip-rule="evenodd" d="M108.051 36L108.051 22.0353C108.051 19.3174 109.884 17.407 112.784 17.407H122.209C125.109 17.407 126.942 19.3174 126.942 22.0353L126.941 36H133V21.2571C133 16.1657 128.741 12 123.536 12H111.464C106.259 12 102 16.1657 102 21.2571V36H108.051Z" fill="white"/>
<path fill-rule="evenodd" clip-rule="evenodd" d="M140.075 31H138.924C137.866 31 137 31.8686 137 32.9308V34.0705C137 35.1307 137.866 36 138.924 36H140.075C141.134 36 142 35.1307 142 34.0705V32.9308C142 31.8686 141.134 31 140.075 31Z" fill="white"/>
<path fill-rule="evenodd" clip-rule="evenodd" d="M186.057 12L186.059 25.9645C186.059 28.6824 184.258 30.5928 181.411 30.5928H173.596C170.749 30.5928 168.948 28.6824 168.948 25.9645L168.95 12H163V26.7429C163 31.8343 167.182 36 172.294 36H182.706C187.818 36 192 31.8343 192 26.7429V12H186.057Z" fill="white"/>
<path fill-rule="evenodd" clip-rule="evenodd" d="M156.843 17.4847H159.023L160 12H155.517C150.282 12 146 16.2258 146 21.3903V36H152.085L152.084 22.1796C152.084 19.4226 153.928 17.4847 156.843 17.4847Z" fill="white"/>
<path fill-rule="evenodd" clip-rule="evenodd" d="M61.9275 30.5625H44.933L61.7071 17.8776C62.5286 17.2538 63 16.299 63 15.2579C63 13.5258 61.6705 12.1081 59.7267 12H35.1279L35.1374 12.056L35.1279 12.0539L36.0729 17.4373H53.0754L36.2936 30.1112C35.4718 30.735 35 31.69 35 32.7314C35 34.5332 36.2563 35.9995 38.4666 35.9995L62.8806 36L62.8707 35.9424L62.8727 35.9433L61.9275 30.5625Z" fill="white"/>
</svg>

<svg width="192" height="48" fill="none" xmlns="http://www.w3.org/2000/svg"><path fill-rule="evenodd" clip-rule="evenodd" d="M91.277 26.105c0 2.51-2.01 4.564-4.47 4.564h-9.62c-2.46 0-4.47-2.054-4.47-4.564l-.001-4.21c0-2.68 1.732-4.564 4.47-4.564h9.621c2.74 0 4.471 1.884 4.471 4.563v4.211zM88.06 12H75.94C71.023 12 67 16.107 67 21.127v5.746C67 31.893 71.023 36 75.94 36h12.12c4.917 0 8.94-4.107 8.94-9.127v-5.746C97 16.107 92.977 12 88.06 12zM24.277 26.105c0 2.51-2.011 4.564-4.47 4.564h-9.62c-2.46 0-4.47-2.054-4.47-4.564l-.001-4.21c0-2.68 1.732-4.564 4.47-4.564h9.621c2.739 0 4.47 1.884 4.47 4.563v4.211zM21.059 12H8.94C4.023 12 0 16.107 0 21.127v5.746C0 31.893 4.023 36 8.94 36h12.12c4.917 0 8.94-4.107 8.94-9.127v-5.746C30 16.107 25.977 12 21.06 12zm86.992 24V22.035c0-2.718 1.833-4.628 4.733-4.628h9.425c2.9 0 4.733 1.91 4.733 4.628L126.941 36H133V21.257c0-5.091-4.259-9.257-9.464-9.257h-12.072c-5.205 0-9.464 4.166-9.464 9.257V36h6.051zm32.024-5h-1.151A1.933 1.933 0 0 0 137 32.93v1.14c0 1.06.866 1.93 1.924 1.93h1.151c1.059 0 1.925-.87 1.925-1.93v-1.14c0-1.061-.866-1.93-1.925-1.93zm45.982-19l.002 13.965c0 2.717-1.801 4.628-4.648 4.628h-7.815c-2.847 0-4.648-1.91-4.648-4.628L168.95 12H163v14.743c0 5.091 4.182 9.257 9.294 9.257h10.412c5.112 0 9.294-4.166 9.294-9.257V12h-5.943zm-29.214 5.485h2.18L160 12h-4.483c-5.235 0-9.517 4.226-9.517 9.39V36h6.085l-.001-13.82c0-2.757 1.844-4.695 4.759-4.695zM61.928 30.563H44.933l16.774-12.685A3.26 3.26 0 0 0 63 15.258c0-1.732-1.33-3.15-3.273-3.258h-24.6l.01.056-.01-.002.946 5.383h17.002L36.294 30.111A3.26 3.26 0 0 0 35 32.731C35 34.533 36.256 36 38.467 36H62.88l-.01-.058.002.001-.945-5.38z" fill="#fff"/></svg>
